X:1
T:Frances Ann's Delight
S:Thomas Bending, June 2004
H:was Anon045
O:April 2003
M:6/8
L:1/8
R:Jig
K:G
G3 d3 | c>BA B2 G | d>ef g2 f | a>gf e2 d |
G3 d3 | c>BA B2 G | c>dc B2 G | A>GF G3 |]
